sources/images/svg/video.svg

<svg width="47" height="47" viewBox="0 0 47 47" xmlns="http://www.w3.org/2000/svg"><g id="video" transform="translate(-603 -860) translate(604 861)" fill="#fff" fill-rule="evenodd"><path d="M22.916 45.938c-12.737 0-23.1-10.362-23.1-23.1 0-12.736 10.363-23.1 23.1-23.1 12.736 0 23.1 10.364 23.1 23.1 0 12.738-10.364 23.1-23.1 23.1zm0-44.2c-11.635 0-21.1 9.466-21.1 21.1 0 11.636 9.465 21.1 21.1 21.1 11.634 0 21.1-9.464 21.1-21.1 0-11.634-9.466-21.1-21.1-21.1z" id="Fill-1"/><path d="M18.574 29.508c-.436 0-.753-.344-.753-.818V16.987c0-.63.62-1.015 1.19-.7l10.557 5.868c.28.154.442.404.442.684s-.163.53-.446.682L19.01 29.39c-.144.08-.29.118-.436.118zm.247-12.18V28.35l9.917-5.51-9.915-5.512z" id="Fill-2"/></g></svg>

<?xml version="1.0" encoding="UTF-8" standalone="no"?>
<svg width="47px" height="47px" viewBox="0 0 47 47" version="1.1" xmlns="http://www.w3.org/2000/svg" xmlns:xlink="http://www.w3.org/1999/xlink" xmlns:sketch="http://www.bohemiancoding.com/sketch/ns">
    <!-- Generator: Sketch 3.0.4 (8053) - http://www.bohemiancoding.com/sketch -->
    <title>video</title>
    <desc>Created with Sketch.</desc>
    <defs></defs>
    <g id="Page-1" stroke="none" stroke-width="1" fill="none" fill-rule="evenodd" sketch:type="MSPage">
        <g id="Landscape-Retina" sketch:type="MSArtboardGroup" transform="translate(-603.000000, -860.000000)" fill="#FFFFFF">
            <g id="video" sketch:type="MSLayerGroup" transform="translate(604.000000, 861.000000)">
                <path d="M22.916,45.938 C10.179,45.938 -0.185,35.576 -0.185,22.839 C-0.185,10.102 10.179,-0.261 22.916,-0.261 C35.652,-0.261 46.015,10.102 46.015,22.839 C46.015,35.576 35.652,45.938 22.916,45.938 L22.916,45.938 Z M22.916,1.739 C11.281,1.739 1.815,11.204 1.815,22.839 C1.815,34.474 11.281,43.939 22.916,43.939 C34.55,43.939 44.015,34.474 44.015,22.839 C44.015,11.204 34.55,1.739 22.916,1.739 L22.916,1.739 Z" id="Fill-1" sketch:type="MSShapeGroup"></path>
                <path d="M18.574,29.508 C18.138,29.508 17.821,29.164 17.821,28.69 L17.821,16.987 C17.821,16.356 18.441,15.972 19.008,16.288 L29.566,22.155 C29.846,22.309 30.008,22.559 30.008,22.839 C30.008,23.119 29.846,23.369 29.563,23.523 L19.01,29.39 C18.866,29.469 18.72,29.508 18.574,29.508 L18.574,29.508 Z M18.821,17.328 L18.821,28.35 L28.736,22.839 L18.821,17.328 L18.821,17.328 Z" id="Fill-2" sketch:type="MSShapeGroup"></path>
            </g>
        </g>
    </g>
</svg>
